X:1
T:Hark to the Bells
T:John H. Kurzenknabe, 1891
T:Hark to the Bells
T:Public Domain
T:Public Domain
C:John H. Kurzenknabe, 1891
Z:Public Domain
%%score ( 1 2 ) ( 3 4 )
L:1/8
M:4/4
K:Db
V:1 treble 
V:2 treble 
V:3 bass 
V:4 bass 
V:1
 [FA]2 [FA]2 [DF]4 | [FA]2 [FA]2 [DF]4 | [FA]2 [DF]2 [GB]2 [FA]2 | [FA]2 [FA]2 [FA]2 [EG]2 | %4
w: 1.~Bells of praise!|Bells of praise!|How the mer- ry|bells are ring- ing,|
w: 2.~Bells of prayer!|Bells of prayer!|Oh, how ten- der-|ly the plead- ing,|
w: 3.~Bells of joy!|Bells of joy!|Loud and clear the|peals are tell- ing|
w: 4.~Bells of peace!|Bells of peace!|O- pen wide the|gates of Heav- en,|
 [EG]2 [CE]2 [FA]2 [EG]2 | [EG]2 [EG]2 [EG]2 [DF]2 | [DA]2 [FA]2 [GB]2 [GB]2 | [Gc]2 [Ge]2 [Fd]4 | %8
w: Joy- ous notes their|mess- age bring- ing!|Come where love and|mer- cy meet,|
w: Wear- y, long- ing|souls en- treat- ing,|Have a par- don|full and free!|
w: Of the songs of|prais- es swell- ing.|Wor- ship in yon|tem- ple hall;|
w: Vic- t’ry won, and|rest is giv- en;|O- pen for the|ran- somed soul,|
 ([Bd][Ac]) [GB]2 [FA]2 [DF]2 | [CE]2 [EG]2 [DF]4 ||"^Refrain" [FA]2 [FA][FA] [Fd]2 [FA]2 | %11
w: Bells * of praise ring|clear and sweet.||
w: Bells * of prayer en-|treat- ing thee!|Hark to the bells so|
w: Bells * of joy pro-|claim the call.||
w: Bells * of peace so|sol- emn toll.||
 [FA]2 (Ad) [Gc]2 [GA]2 | [GA]2 [GA]2 [Ge]2 [Gc]2 | [GB]2 [Gc]2 [Fd]2 [FA]2 | %14
w: |||
w: sweet- ly * blend- ing;|with heart and voice|at- tend- ing; Love|
w: |||
w: |||
 [FA]2 [FA]2 [Af]2 [Fd]2 | [Fd]2 A2 [GB]4 | (dc) [GB]2 [FA]2 [Fd]2 | [Fd]2 [Gc]2 [Fd]4 |] %18
w: ||||
w: and mer- cy meet|you there, In|hour * of praise and||
w: ||||
w: ||||
V:2
 x8 | x8 | x8 | x8 | x8 | x8 | x8 | x8 | x8 | x8 || x8 | x2 F2 x4 | x8 | x8 | x8 | x2 A2 x4 | %16
w: ||||||||||||||||
w: |||||||||||Go||||this|
 F2 x6 | x8 |] %18
w: ||
w: prayer.||
V:3
 [D,D]2 [D,D]2 [D,A,]4 | [D,D]2 [D,D]2 [D,A,]4 | [D,D]2 [D,A,]2 [D,D]2 [D,D]2 | %3
 [D,D]2 [D,A,]2 [A,,A,]2 [A,,A,]2 | [A,,A,]2 [A,,A,]2 [A,,A,]2 [A,,A,]2 | %5
 [A,,A,]2 [A,,A,]2 [D,A,]2 [D,A,]2 | [F,D]2 [D,D]2 [G,D]2 [E,E]2 | [A,E]2 [A,,C]2 [D,D]4 | %8
 [G,D]2 [G,D]2 [D,D]2 [D,A,]2 | [A,,A,]2 [A,,A,]2 [D,A,]4 || [D,D]2 [D,D][D,D] [D,A,]2 [D,D]2 | %11
 [D,D]2 [D,A,]2 [A,,A,]2 [A,,A,]2 | [A,,A,]2 [A,,A,]2 [A,,A,]2 [A,,A,]2 | %13
 [A,,A,]2 [A,,A,]2 [D,A,]2 [D,D]2 | [D,D]2 [D,D]2 [D,D]2 [D,A,]2 | [D,D]2 [F,D]2 [G,D]4 | %16
 [G,B,]2 [G,D]2 [A,D]2 A,2 | [A,,A,]2 [A,,A,]2 [D,A,]4 |] %18
V:4
 x8 | x8 | x8 | x8 | x8 | x8 | x8 | x8 | x8 | x8 || x8 | x8 | x8 | x8 | x8 | x8 | x6 A,2 | x8 |] %18

